img/payment_3.svg

<svg width="102" height="36" viewBox="0 0 102 36" fill="none" xmlns="http://www.w3.org/2000/svg">
<path d="M20.9692 18.898V19.78H25.9532V24.022H27.0032V19.78H32.0712V18.898H20.9692ZM22.3832 17.218H30.6292V12.458H22.3832V17.218ZM23.4192 16.378V13.312H29.5932V16.378H23.4192ZM33.2055 18.282V19.15H44.2655V18.282H39.2535V17.036H42.9635V16.196H35.7255V14.964H42.5715V14.138H35.7255V12.976H42.9075V12.136H34.6615V17.036H38.2035V18.282H33.2055ZM34.5495 22.048C34.5495 23.322 36.0615 23.994 38.7355 23.994C41.4095 23.994 42.9215 23.322 42.9215 22.048C42.9215 20.76 41.4095 20.088 38.7355 20.088C36.0615 20.088 34.5495 20.76 34.5495 22.048ZM35.6135 22.048C35.6135 21.306 36.7475 20.9 38.7355 20.9C40.7095 20.9 41.8575 21.306 41.8575 22.048C41.8575 22.804 40.7095 23.196 38.7355 23.196C36.7475 23.196 35.6135 22.804 35.6135 22.048ZM45.7218 12.682V13.564H48.4938V14.096C48.4938 15.874 47.2198 17.456 45.3998 18.086L45.9598 18.94C47.4018 18.408 48.5218 17.316 49.0398 15.902C49.5718 17.134 50.6358 18.1 52.0078 18.562L52.5258 17.736C50.7478 17.148 49.5578 15.706 49.5578 14.082V13.564H52.2878V12.682H45.7218ZM47.0238 21.754C47.0238 23.168 48.5498 24.008 51.0418 24.008C53.5198 24.008 55.0598 23.168 55.0598 21.754C55.0598 20.34 53.5198 19.514 51.0418 19.514C48.5498 19.514 47.0238 20.34 47.0238 21.754ZM48.0598 21.754C48.0598 20.872 49.2078 20.368 51.0418 20.368C52.8758 20.368 54.0098 20.872 54.0098 21.754C54.0098 22.622 52.8758 23.154 51.0418 23.154C49.2078 23.154 48.0598 22.622 48.0598 21.754ZM53.8698 19.164H54.9478V15.804H56.7678V14.908H54.9478V11.772H53.8698V19.164ZM66.6382 11.786V18.338H67.7162V11.786H66.6382ZM57.9722 15.174C57.9722 16.854 59.3162 18.002 61.1502 18.002C62.9982 18.002 64.3422 16.854 64.3422 15.174C64.3422 13.522 62.9982 12.374 61.1502 12.374C59.3162 12.374 57.9722 13.522 57.9722 15.174ZM59.0222 15.174C59.0222 14.04 59.9182 13.256 61.1502 13.256C62.4102 13.256 63.3062 14.04 63.3062 15.174C63.3062 16.308 62.4102 17.092 61.1502 17.092C59.9182 17.092 59.0222 16.308 59.0222 15.174ZM59.8482 23.854H67.7162V18.968H66.6662V20.494H60.8982V18.968H59.8482V23.854ZM60.8982 23V21.348H66.6662V23H60.8982ZM71.3425 12.43V13.298H78.5385V13.326C78.5385 14.278 78.5385 15.398 78.1745 16.952H69.9145V17.82H81.0165V16.952H79.2385C79.5745 15.412 79.5745 14.292 79.5745 13.326V12.43H71.3425ZM71.2865 23.854H79.6165V19.514H71.2865V23.854ZM72.3225 23V20.382H78.5805V23H72.3225Z" fill="#797979"/>
<path d="M6 1H96V-1H6V1ZM101 6V30H103V6H101ZM96 35H6V37H96V35ZM1 30V6H-1V30H1ZM6 35C3.23858 35 1 32.7614 1 30H-1C-1 33.866 2.13401 37 6 37V35ZM101 30C101 32.7614 98.7614 35 96 35V37C99.866 37 103 33.866 103 30H101ZM96 1C98.7614 1 101 3.23858 101 6H103C103 2.13401 99.866 -1 96 -1V1ZM6 -1C2.13401 -1 -1 2.13401 -1 6H1C1 3.23858 3.23858 1 6 1V-1Z" fill="#E2E2E2"/>
</svg>

<?xml version="1.0" encoding="utf-8"?>
<!-- Generator: Adobe Illustrator 26.3.1, SVG Export Plug-In . SVG Version: 6.00 Build 0)  -->
<svg version="1.1" id="레이어_1" xmlns="http://www.w3.org/2000/svg" xmlns:xlink="http://www.w3.org/1999/xlink" x="0px"
	 y="0px" viewBox="0 0 102 36" style="enable-background:new 0 0 102 36;" xml:space="preserve">
<style type="text/css">
	.st0{fill:#797979;}
</style>
<path class="st0" d="M20.97,18.9v0.88h4.98v4.24H27v-4.24h5.07V18.9H20.97z M22.38,17.22h8.25v-4.76h-8.25V17.22z M23.42,16.38
	v-3.07h6.17v3.07H23.42z M33.21,18.28v0.87h11.06v-0.87h-5.01v-1.25h3.71V16.2h-7.24v-1.23h6.85v-0.83h-6.85v-1.16h7.18v-0.84h-8.25
	v4.9h3.54v1.25H33.21z M34.55,22.05c0,1.27,1.51,1.95,4.19,1.95s4.19-0.67,4.19-1.95c0-1.29-1.51-1.96-4.19-1.96
	S34.55,20.76,34.55,22.05z M35.61,22.05c0-0.74,1.13-1.15,3.12-1.15c1.97,0,3.12,0.41,3.12,1.15c0,0.76-1.15,1.15-3.12,1.15
	C36.75,23.2,35.61,22.8,35.61,22.05z M45.72,12.68v0.88h2.77v0.53c0,1.78-1.27,3.36-3.09,3.99l0.56,0.85
	c1.44-0.53,2.56-1.62,3.08-3.04c0.53,1.23,1.6,2.2,2.97,2.66l0.52-0.83c-1.78-0.59-2.97-2.03-2.97-3.65v-0.52h2.73v-0.88H45.72z
	 M47.02,21.75c0,1.41,1.53,2.25,4.02,2.25c2.48,0,4.02-0.84,4.02-2.25s-1.54-2.24-4.02-2.24C48.55,19.51,47.02,20.34,47.02,21.75z
	 M48.06,21.75c0-0.88,1.15-1.39,2.98-1.39s2.97,0.5,2.97,1.39c0,0.87-1.13,1.4-2.97,1.4S48.06,22.62,48.06,21.75z M53.87,19.16h1.08
	V15.8h1.82v-0.9h-1.82v-3.14h-1.08V19.16z M66.64,11.79v6.55h1.08v-6.55H66.64z M57.97,15.17c0,1.68,1.34,2.83,3.18,2.83
	c1.85,0,3.19-1.15,3.19-2.83c0-1.65-1.34-2.8-3.19-2.8C59.32,12.37,57.97,13.52,57.97,15.17z M59.02,15.17
	c0-1.13,0.9-1.92,2.13-1.92c1.26,0,2.16,0.78,2.16,1.92c0,1.13-0.9,1.92-2.16,1.92C59.92,17.09,59.02,16.31,59.02,15.17z
	 M59.85,23.85h7.87v-4.89h-1.05v1.53H60.9v-1.53h-1.05V23.85z M60.9,23v-1.65h5.77V23H60.9z M71.34,12.43v0.87h7.2v0.03
	c0,0.95,0,2.07-0.36,3.63h-8.26v0.87h11.1v-0.87h-1.78c0.34-1.54,0.34-2.66,0.34-3.63v-0.9H71.34z M71.29,23.85h8.33v-4.34h-8.33
	V23.85z M72.32,23v-2.62h6.26V23H72.32z"/>
</svg>
